images/icons/delivery-white.svg

<svg width="90" height="90" viewBox="0 0 90 90" fill="none" xmlns="http://www.w3.org/2000/svg"><path d="M72.0228 33.7609h-5.426l1.6348-18.7704a1.1432 1.1432 0 0 0 .0037-.101c0-.0029.0004-.0056.0004-.0084v-.0014c0-.5108-.3082-.9611-.7612-1.1569-.0039-.0017-.0076-.0037-.0115-.0054a1.1861 1.1861 0 0 0-.0865-.0316c-.0109-.0036-.0214-.0079-.0323-.0113-.0239-.0072-.0485-.013-.0729-.0189-.0172-.004-.0337-.0089-.051-.0122-.0214-.0043-.0436-.0069-.0655-.0101-.0205-.0031-.0407-.0066-.0614-.0085-.0035-.0003-.0067-.001-.0103-.0013-.0222-.002-.0441-.0017-.0661-.0025-.0148-.0005-.0293-.0022-.0441-.0022H41.1361c-.6969 0-1.2625.5656-1.2625 1.2625 0 .6952.5656 1.2624 1.2625 1.2624h24.4607l-2.5125 28.8477c-.0004.0022-.0004.0044-.0007.0066l-.634 7.2788H18.5811l.7338-7.5746h8.3527c.6974 0 1.2625-.5652 1.2625-1.2624 0-.6973-.5651-1.2625-1.2625-1.2625h-8.108l1.5493-15.9906h13.294c.6974 0 1.2624-.5653 1.2624-1.2625 0-.6972-.565-1.2625-1.2624-1.2625H21.3537l.7285-7.518h14.004c.6952 0 1.2625-.5672 1.2625-1.2624 0-.6969-.5673-1.2625-1.2625-1.2625H20.9364l-.0018.0001c-.5931-.0001-1.1075.4173-1.2319.9961-.0008.0042-.0023.0082-.0032.0124a1.361 1.361 0 0 0-.0148.096c-.0012.0102-.0034.02-.0044.0303-.0001.002-.0007.0038-.0008.0059l-.8626 8.9021H3.5125c-.6974 0-1.2625.5653-1.2625 1.2625 0 .6972.565 1.2625 1.2625 1.2625h15.0597l-1.5493 15.9906h-4.5044c-.6974 0-1.2625.5652-1.2625 1.2625 0 .6972.5651 1.2624 1.2625 1.2624h4.2598l-.8437 8.7063c-.0001.0013-.0001.0027-.0003.0039l-1.3044 13.4629-.0005.0045-.0005.0049c-.0017.0175-.0015.0347-.0025.0522-.0012.0232-.0036.0459-.0036.0695l.0002.0032c0 .0325.0023.0645.0047.0965.001.0102.0007.0207.0019.0308.0033.0326.0089.0648.0148.0968.0016.0094.0025.019.0043.0282.0049.0243.0118.0477.0182.0714.0044.0167.0079.0337.013.05.0015.0046.0035.0089.0049.0136.0611.1879.1648.3566.3001.4943.0025.0025.0045.0053.0071.0077.0134.0135.0281.0256.0422.0384.087.0798.1854.1474.2929.2005.0224.0111.0445.0227.0673.0323.007.003.0144.005.0214.0077.0317.0126.0635.0248.0963.035.003.0009.0059.0014.0089.0024.0374.0111.0751.0209.1137.0288.005.001.0102.0013.0151.0023.0367.0069.0736.0128.1111.0165.0008 0 .0015.0002.0024.0004.0414.004.0824.006.1232.006l.0018-.0001h5.6203c.6206 4.7053 4.6546 8.3497 9.527 8.3497 4.872 0 8.906-3.6444 9.5267-8.3497h20.25c.6208 4.7053 4.6547 8.3497 9.5268 8.3497 4.872 0 8.9064-3.6444 9.5272-8.3497h5.6216l.0027.0001a1.283 1.283 0 0 0 .1246-.0065c.0074-.0007.0144-.0022.0218-.0031a1.1986 1.1986 0 0 0 .0975-.0148c.0138-.0027.0271-.0064.0407-.0096a1.2116 1.2116 0 0 0 .0739-.019c.0165-.0049.0325-.0106.0487-.0162a1.0917 1.0917 0 0 0 .0618-.0227c.0175-.0069.0341-.0145.0511-.022a1.2635 1.2635 0 0 0 .2036-.1163c.0171-.012.0334-.0246.0501-.0374.0138-.011.0278-.0217.0413-.0332a1.1318 1.1318 0 0 0 .0501-.0456c.0115-.0109.0234-.0217.0345-.0332a1.3557 1.3557 0 0 0 .0509-.0557c.0089-.0102.0181-.0202.0267-.0306a1.3277 1.3277 0 0 0 .0522-.0702c.0057-.0083.0121-.016.0177-.0244a1.2728 1.2728 0 0 0 .0577-.0951 1.2047 1.2047 0 0 0 .0557-.114c.0044-.0106.0078-.0215.012-.0321a1.168 1.168 0 0 0 .0289-.0793c.0056-.0175.0096-.0355.0145-.0532.0056-.021.0115-.0419.0162-.0633.0042-.019.0069-.0385.0101-.0579.0028-.017.0065-.0337.0087-.051.0536-.4289 1.0422-8.3605 1.4837-13.4892.0005-.0049.0007-.0099.0012-.0148.1271-1.4785.2085-2.7234.2085-3.4856 0-9.0497-7.3624-16.4123-16.4122-16.4123Zm-5.646 2.5253h5.1649l-.6597 7.5742h-5.1649l.6597-7.5742ZM31.0359 74.0936c-3.9081 0-7.0876-3.1794-7.0876-7.0874 0-3.9079 3.1796-7.0874 7.0876-7.0874s7.0874 3.1795 7.0874 7.0874c0 3.908-3.1794 7.0874-7.0874 7.0874Zm39.3032 0c-3.9079 0-7.0872-3.1794-7.0872-7.0874 0-3.9079 3.1794-7.0874 7.0872-7.0874 3.9082 0 7.0876 3.1795 7.0876 7.0874 0 3.908-3.1794 7.0874-7.0876 7.0874Zm14.0333-8.3503h-4.5057c-.6205-4.7057-4.6547-8.3503-9.5272-8.3503-4.8722 0-8.9064 3.6447-9.5269 8.3503H40.5628c-.6205-4.7057-4.6545-8.3503-9.5269-8.3503-4.8723 0-8.9067 3.6447-9.5272 8.3503h-4.2325l1.0603-10.9422h45.2701v.0007h.0018a1.244 1.244 0 0 0 .1256-.0066c.0078-.0007.0153-.0024.0231-.0034a1.2273 1.2273 0 0 0 .0981-.015c.014-.0028.0276-.0067.0414-.0101.0253-.006.0505-.0119.0751-.0193.0168-.0051.0328-.0111.0491-.0169.0213-.0074.0425-.0146.063-.023.0177-.0072.0347-.0153.0518-.0234a1.2294 1.2294 0 0 0 .0554-.0266c.0172-.0091.034-.0189.051-.0286a1.405 1.405 0 0 0 .0514-.0312c.0163-.0106.0318-.0217.0474-.0328a1.2446 1.2446 0 0 0 .049-.0365 1.4337 1.4337 0 0 0 .0897-.0785 1.3558 1.3558 0 0 0 .0381-.0378 1.583 1.583 0 0 0 .0443-.0488c.0112-.0132.0224-.0263.0331-.0398a1.27 1.27 0 0 0 .0404-.0542c.01-.0138.0195-.0276.029-.0417.0123-.019.024-.0386.0353-.0584.0086-.0148.0174-.0297.0251-.0448.0106-.0199.0197-.0401.0293-.0604.0074-.0164.015-.0324.0217-.0492.0083-.0199.0152-.0402.0224-.0606.0062-.018.0128-.036.0183-.0545.0056-.0196.0101-.0396.0152-.0595.0049-.02.0103-.0398.0141-.0602.0039-.0199.0063-.0401.0093-.0603.003-.0209.0066-.0414.0086-.0626.0003-.003.001-.0059.0012-.0089l.6327-7.2635h6.5249c3.868 0 5.6126 2.0042 7.4594 4.1261 1.5239 1.7508 3.2252 3.7043 6.1171 4.1809-.3673 3.8834-.961 8.8686-1.2266 11.0516Zm1.4424-13.5816c-1.876-.3825-3.0303-1.7014-4.4286-3.3079-1.7488-2.009-3.8837-4.4608-7.9764-4.9176l.6532-7.4988c6.6935.9899 11.8471 6.7717 11.8471 13.7361 0 .4732-.0354 1.1606-.0953 1.9882Z" fill="#fff"/><path d="M31.036 62.377c-2.5524 0-4.6291 2.0765-4.6291 4.6291 0 2.5525 2.0767 4.629 4.6291 4.629s4.6291-2.0765 4.6291-4.629c0-2.5524-2.0767-4.6291-4.6291-4.6291Zm0 6.7332c-1.1603 0-2.1042-.9438-2.1042-2.1041 0-1.1604.9439-2.1042 2.1042-2.1042s2.1041.9438 2.1041 2.1042c0 1.1603-.944 2.1041-2.1041 2.1041ZM70.3391 62.377c-2.5524 0-4.6291 2.0765-4.6291 4.6291 0 2.5525 2.0767 4.629 4.6291 4.629s4.6291-2.0765 4.6291-4.629c0-2.5524-2.0767-4.6291-4.6291-4.6291Zm0 6.7332c-1.1603 0-2.1042-.9438-2.1042-2.1041 0-1.1604.9439-2.1042 2.1042-2.1042s2.1041.9438 2.1041 2.1042c0 1.1603-.9438 2.1041-2.1041 2.1041ZM14.2014 33.7613h-6.172c-.6974 0-1.2625.5652-1.2625 1.2625 0 .6972.565 1.2625 1.2625 1.2625h6.172c.6974 0 1.2625-.5653 1.2625-1.2625 0-.6973-.5651-1.2625-1.2625-1.2625Z" fill="#fff"/></svg>

<svg width="90" height="90" viewBox="0 0 90 90" fill="none" xmlns="http://www.w3.org/2000/svg">
<path d="M72.0228 33.7609H66.5968L68.2316 14.9905C68.2347 14.9565 68.2352 14.923 68.2353 14.8895C68.2353 14.8866 68.2357 14.8839 68.2357 14.8811C68.2357 14.8806 68.2357 14.8802 68.2357 14.8797C68.2357 14.3689 67.9275 13.9186 67.4745 13.7228C67.4706 13.7211 67.4669 13.7191 67.463 13.7174C67.4349 13.7056 67.4058 13.6955 67.3765 13.6858C67.3656 13.6822 67.3551 13.6779 67.3442 13.6745C67.3203 13.6673 67.2957 13.6615 67.2713 13.6556C67.2541 13.6516 67.2376 13.6467 67.2203 13.6434C67.1989 13.6391 67.1767 13.6365 67.1548 13.6333C67.1343 13.6302 67.1141 13.6267 67.0934 13.6248C67.0899 13.6245 67.0867 13.6238 67.0831 13.6235C67.0609 13.6215 67.039 13.6218 67.017 13.621C67.0022 13.6205 66.9877 13.6188 66.9729 13.6188H66.957C66.9557 13.6188 66.9543 13.6188 66.9532 13.6188H41.1361C40.4392 13.6188 39.8736 14.1844 39.8736 14.8813C39.8736 15.5765 40.4392 16.1437 41.1361 16.1437H65.5968L63.0843 44.9914C63.0839 44.9936 63.0839 44.9958 63.0836 44.998L62.4496 52.2768H18.5811L19.3149 44.7022H27.6676C28.365 44.7022 28.9301 44.137 28.9301 43.4398C28.9301 42.7425 28.365 42.1773 27.6676 42.1773H19.5596L21.1089 26.1867H34.4029C35.1003 26.1867 35.6653 25.6214 35.6653 24.9242C35.6653 24.227 35.1003 23.6617 34.4029 23.6617H21.3537L22.0822 16.1437H36.0862C36.7814 16.1437 37.3487 15.5765 37.3487 14.8813C37.3487 14.1844 36.7814 13.6188 36.0862 13.6188H20.9364C20.9357 13.6188 20.9352 13.6189 20.9346 13.6189C20.3415 13.6188 19.8271 14.0362 19.7027 14.615C19.7019 14.6192 19.7004 14.6232 19.6995 14.6274C19.6931 14.6589 19.6889 14.691 19.6847 14.7234C19.6835 14.7336 19.6813 14.7434 19.6803 14.7537C19.6802 14.7557 19.6796 14.7575 19.6795 14.7596L18.8169 23.6617H3.51248C2.81509 23.6617 2.25 24.227 2.25 24.9242C2.25 25.6214 2.81509 26.1867 3.51248 26.1867H18.5722L17.0229 42.1773H12.5185C11.8211 42.1773 11.256 42.7425 11.256 43.4398C11.256 44.137 11.8211 44.7022 12.5185 44.7022H16.7783L15.9346 53.4085C15.9345 53.4098 15.9345 53.4112 15.9343 53.4124L14.6299 66.8753C14.6297 66.8768 14.6296 66.8785 14.6294 66.8798L14.6289 66.8847C14.6272 66.9022 14.6274 66.9194 14.6264 66.9369C14.6252 66.9601 14.6228 66.9828 14.6228 67.0064C14.6228 67.0074 14.623 67.0084 14.623 67.0096C14.623 67.0421 14.6253 67.0741 14.6277 67.1061C14.6287 67.1163 14.6284 67.1268 14.6296 67.1369C14.6329 67.1695 14.6385 67.2017 14.6444 67.2337C14.646 67.2431 14.6469 67.2527 14.6487 67.2619C14.6536 67.2862 14.6605 67.3096 14.6669 67.3333C14.6713 67.35 14.6748 67.367 14.6799 67.3833C14.6814 67.3879 14.6834 67.3922 14.6848 67.3969C14.7459 67.5848 14.8496 67.7535 14.9849 67.8912C14.9874 67.8937 14.9894 67.8965 14.992 67.8989C15.0054 67.9124 15.0201 67.9245 15.0342 67.9373C15.1212 68.0171 15.2196 68.0847 15.3271 68.1378C15.3495 68.1489 15.3716 68.1605 15.3944 68.1701C15.4014 68.1731 15.4088 68.1751 15.4158 68.1778C15.4475 68.1904 15.4793 68.2026 15.5121 68.2128C15.5151 68.2137 15.518 68.2142 15.521 68.2152C15.5584 68.2263 15.5961 68.2361 15.6347 68.244C15.6397 68.245 15.6449 68.2453 15.6498 68.2463C15.6865 68.2532 15.7234 68.2591 15.7609 68.2628C15.7617 68.2628 15.7624 68.263 15.7633 68.2632C15.8047 68.2672 15.8457 68.2692 15.8865 68.2692C15.887 68.2692 15.8877 68.2691 15.8883 68.2691H21.5086C22.1292 72.9744 26.1632 76.6188 31.0356 76.6188C35.9076 76.6188 39.9416 72.9744 40.5623 68.2691H60.8123C61.4331 72.9744 65.467 76.6188 70.3391 76.6188C75.2111 76.6188 79.2455 72.9744 79.8663 68.2691H85.4879C85.4887 68.2691 85.4898 68.2692 85.4906 68.2692C85.5327 68.2692 85.5741 68.2667 85.6152 68.2627C85.6226 68.262 85.6296 68.2605 85.637 68.2596C85.6699 68.2558 85.7025 68.2512 85.7345 68.2448C85.7483 68.2421 85.7616 68.2384 85.7752 68.2352C85.8 68.2295 85.8249 68.2234 85.8491 68.2162C85.8656 68.2113 85.8816 68.2056 85.8978 68.2C85.9185 68.193 85.9392 68.1856 85.9596 68.1773C85.9771 68.1704 85.9937 68.1628 86.0107 68.1553C86.0293 68.1467 86.0478 68.1379 86.0658 68.1287C86.083 68.1199 86.0995 68.1108 86.116 68.1014C86.1333 68.0913 86.1505 68.0809 86.1675 68.0701C86.1833 68.06 86.1991 68.0497 86.2143 68.039C86.2314 68.027 86.2477 68.0144 86.2644 68.0016C86.2782 67.9906 86.2922 67.9799 86.3057 67.9684C86.323 67.9538 86.3393 67.9385 86.3558 67.9228C86.3673 67.9119 86.3792 67.9011 86.3903 67.8896C86.4078 67.8718 86.4245 67.8529 86.4412 67.8339C86.4501 67.8237 86.4593 67.8137 86.4679 67.8033C86.4865 67.7804 86.5033 67.7568 86.5201 67.7331C86.5258 67.7248 86.5322 67.7171 86.5378 67.7087C86.5583 67.6779 86.5777 67.6462 86.5955 67.6136C86.5969 67.6116 86.5982 67.6097 86.5991 67.6075C86.6181 67.5725 86.6356 67.5367 86.6512 67.4996C86.6556 67.489 86.659 67.4781 86.6632 67.4675C86.6735 67.4414 86.6836 67.4153 86.6921 67.3882C86.6977 67.3707 86.7017 67.3527 86.7066 67.335C86.7122 67.314 86.7181 67.2931 86.7228 67.2717C86.727 67.2527 86.7297 67.2332 86.7329 67.2138C86.7357 67.1968 86.7394 67.1801 86.7416 67.1628C86.7952 66.7339 87.7838 58.8023 88.2253 53.6736C88.2258 53.6687 88.226 53.6637 88.2265 53.6588C88.3536 52.1803 88.435 50.9354 88.435 50.1732C88.435 41.1235 81.0726 33.7609 72.0228 33.7609ZM66.3768 36.2862H71.5417L70.882 43.8604H65.7171L66.3768 36.2862ZM31.0359 74.0936C27.1278 74.0936 23.9483 70.9142 23.9483 67.0062C23.9483 63.0983 27.1279 59.9188 31.0359 59.9188C34.9439 59.9188 38.1233 63.0983 38.1233 67.0062C38.1233 70.9142 34.9439 74.0936 31.0359 74.0936ZM70.3391 74.0936C66.4312 74.0936 63.2519 70.9142 63.2519 67.0062C63.2519 63.0983 66.4313 59.9188 70.3391 59.9188C74.2473 59.9188 77.4267 63.0983 77.4267 67.0062C77.4267 70.9142 74.2473 74.0936 70.3391 74.0936ZM84.3724 65.7433H79.8667C79.2462 61.0376 75.212 57.393 70.3395 57.393C65.4673 57.393 61.4331 61.0377 60.8126 65.7433H40.5628C39.9423 61.0376 35.9083 57.393 31.0359 57.393C26.1636 57.393 22.1292 61.0377 21.5087 65.7433H17.2762L18.3365 54.8011H63.6066V54.8018C63.6073 54.8018 63.6078 54.8018 63.6084 54.8018C63.6507 54.8018 63.6926 54.7994 63.734 54.7952C63.7418 54.7945 63.7493 54.7928 63.7571 54.7918C63.7901 54.788 63.8229 54.7832 63.8552 54.7768C63.8692 54.774 63.8828 54.7701 63.8966 54.7667C63.9219 54.7607 63.9471 54.7548 63.9717 54.7474C63.9885 54.7423 64.0045 54.7363 64.0208 54.7305C64.0421 54.7231 64.0633 54.7159 64.0838 54.7075C64.1015 54.7003 64.1185 54.6922 64.1356 54.6841C64.1543 54.6755 64.173 54.6669 64.191 54.6575C64.2082 54.6484 64.225 54.6386 64.242 54.6289C64.2594 54.6188 64.2765 54.6085 64.2934 54.5977C64.3097 54.5871 64.3252 54.576 64.3408 54.5649C64.3575 54.5531 64.3737 54.541 64.3898 54.5284C64.4043 54.5168 64.4186 54.5048 64.4328 54.4925C64.4487 54.4787 64.4644 54.4646 64.4795 54.4499C64.4923 54.4377 64.5051 54.425 64.5176 54.4121C64.5327 54.3962 64.5474 54.3799 64.5619 54.3633C64.5731 54.3501 64.5843 54.337 64.595 54.3235C64.609 54.3059 64.6223 54.2877 64.6354 54.2693C64.6454 54.2555 64.6549 54.2417 64.6644 54.2276C64.6767 54.2086 64.6884 54.189 64.6997 54.1692C64.7083 54.1544 64.7171 54.1395 64.7248 54.1244C64.7354 54.1045 64.7445 54.0843 64.7541 54.064C64.7615 54.0476 64.7691 54.0316 64.7758 54.0148C64.7841 53.9949 64.791 53.9746 64.7982 53.9542C64.8044 53.9362 64.811 53.9182 64.8165 53.8997C64.8221 53.8801 64.8266 53.8601 64.8317 53.8402C64.8366 53.8202 64.842 53.8004 64.8458 53.78C64.8497 53.7601 64.8521 53.7399 64.8551 53.7197C64.8581 53.6988 64.8617 53.6783 64.8637 53.6571C64.864 53.6541 64.8647 53.6512 64.8649 53.6482L65.4976 46.3847H72.0225C75.8905 46.3847 77.6351 48.3889 79.4819 50.5108C81.0058 52.2616 82.7071 54.2151 85.599 54.6917C85.2317 58.5751 84.638 63.5603 84.3724 65.7433ZM85.8148 52.1617C83.9388 51.7792 82.7845 50.4603 81.3862 48.8538C79.6374 46.8448 77.5025 44.393 73.4098 43.9362L74.063 36.4374C80.7565 37.4273 85.9101 43.2091 85.9101 50.1735C85.9101 50.6467 85.8747 51.3341 85.8148 52.1617Z" fill="white"/>
<path d="M31.036 62.377C28.4836 62.377 26.4069 64.4535 26.4069 67.0061C26.4069 69.5586 28.4836 71.6351 31.036 71.6351C33.5884 71.6351 35.6651 69.5586 35.6651 67.0061C35.6651 64.4537 33.5884 62.377 31.036 62.377ZM31.036 69.1102C29.8757 69.1102 28.9318 68.1664 28.9318 67.0061C28.9318 65.8457 29.8757 64.9019 31.036 64.9019C32.1963 64.9019 33.1401 65.8457 33.1401 67.0061C33.1401 68.1664 32.1961 69.1102 31.036 69.1102Z" fill="white"/>
<path d="M70.3391 62.377C67.7867 62.377 65.71 64.4535 65.71 67.0061C65.71 69.5586 67.7867 71.6351 70.3391 71.6351C72.8915 71.6351 74.9682 69.5586 74.9682 67.0061C74.9682 64.4537 72.8915 62.377 70.3391 62.377ZM70.3391 69.1102C69.1788 69.1102 68.2349 68.1664 68.2349 67.0061C68.2349 65.8457 69.1788 64.9019 70.3391 64.9019C71.4994 64.9019 72.4432 65.8457 72.4432 67.0061C72.4432 68.1664 71.4994 69.1102 70.3391 69.1102Z" fill="white"/>
<path d="M14.2014 33.7613H8.02939C7.33199 33.7613 6.76691 34.3265 6.76691 35.0238C6.76691 35.721 7.33199 36.2863 8.02939 36.2863H14.2014C14.8988 36.2863 15.4639 35.721 15.4639 35.0238C15.4639 34.3265 14.8988 33.7613 14.2014 33.7613Z" fill="white"/>
</svg>
